Newaita-dark/actions/16/kdenlive-spacer-tool.svg

<svg height="16" viewBox="0 0 16 16" width="16" xmlns="http://www.w3.org/2000/svg"><g fill="#e0e0e0"><path d="m10.589844 4.078125c0 .269531-.164063.511719-.410156.609375-.25.101562-.535157.042969-.722657-.148438l-1.519531-1.519531-1.515625 1.519531c-.167969.167969-.410156.238282-.640625.175782-.230469-.058594-.410156-.238282-.46875-.46875-.0625-.230469.007812-.472656.175781-.640625l1.984375-1.984375c.257813-.253906.675782-.253906.933594 0l1.984375 1.984375c.125.125.199219.296875.199219.472656zm0 0"/><path d="m11.863281 5.414062c-.269531 0-.511719.164063-.609375.410157-.101562.25-.042968.535156.148438.71875l1.519531 1.519531-1.519531 1.519531c-.167969.164063-.234375.410157-.175782.640625.058594.226563.238282.40625.46875.46875.230469.058594.472657-.007812.640626-.179687l1.984374-1.984375c.257813-.253906.257813-.671875 0-.929688l-1.984374-1.984375c-.125-.128906-.296876-.199219-.472657-.199219zm0 0"/><path d="m4.011719 5.414062c.269531 0 .511719.164063.609375.410157.101562.25.042968.535156-.148438.71875l-1.519531 1.519531 1.519531 1.519531c.167969.164063.238282.410157.175782.640625-.058594.226563-.238282.40625-.46875.46875-.230469.058594-.472657-.007812-.640626-.179687l-1.984374-1.984375c-.253907-.253906-.253907-.671875 0-.929688l1.984374-1.984375c.125-.128906.296876-.199219.472657-.199219zm0 0"/><path d="m7.9375 7.070312c.546875 0 .992188.445313.992188.992188s-.445313.992188-.992188.992188-.992188-.445313-.992188-.992188.445313-.992188.992188-.992188zm0 0"/></g></svg>

<?xml version="1.0" encoding="UTF-8"?>
<svg xmlns="http://www.w3.org/2000/svg" xmlns:xlink="http://www.w3.org/1999/xlink" width="16px" height="16px" viewBox="0 0 16 16" version="1.1">
<g id="surface1">
<path style=" stroke:none;fill-rule:nonzero;fill:rgb(87.843138%,87.843138%,87.843138%);fill-opacity:1;" d="M 10.589844 4.078125 C 10.589844 4.347656 10.425781 4.589844 10.179688 4.6875 C 9.929688 4.789062 9.644531 4.730469 9.457031 4.539062 L 7.9375 3.019531 L 6.421875 4.539062 C 6.253906 4.707031 6.011719 4.777344 5.78125 4.714844 C 5.550781 4.65625 5.371094 4.476562 5.3125 4.246094 C 5.25 4.015625 5.320312 3.773438 5.488281 3.605469 L 7.472656 1.621094 C 7.730469 1.367188 8.148438 1.367188 8.40625 1.621094 L 10.390625 3.605469 C 10.515625 3.730469 10.589844 3.902344 10.589844 4.078125 Z M 10.589844 4.078125 "/>
<path style=" stroke:none;fill-rule:nonzero;fill:rgb(87.843138%,87.843138%,87.843138%);fill-opacity:1;" d="M 11.863281 5.414062 C 11.59375 5.414062 11.351562 5.578125 11.253906 5.824219 C 11.152344 6.074219 11.210938 6.359375 11.402344 6.542969 L 12.921875 8.0625 L 11.402344 9.582031 C 11.234375 9.746094 11.167969 9.992188 11.226562 10.222656 C 11.285156 10.449219 11.464844 10.628906 11.695312 10.691406 C 11.925781 10.75 12.167969 10.683594 12.335938 10.511719 L 14.320312 8.527344 C 14.578125 8.273438 14.578125 7.855469 14.320312 7.597656 L 12.335938 5.613281 C 12.210938 5.484375 12.039062 5.414062 11.863281 5.414062 Z M 11.863281 5.414062 "/>
<path style=" stroke:none;fill-rule:nonzero;fill:rgb(87.843138%,87.843138%,87.843138%);fill-opacity:1;" d="M 4.011719 5.414062 C 4.28125 5.414062 4.523438 5.578125 4.621094 5.824219 C 4.722656 6.074219 4.664062 6.359375 4.472656 6.542969 L 2.953125 8.0625 L 4.472656 9.582031 C 4.640625 9.746094 4.710938 9.992188 4.648438 10.222656 C 4.589844 10.449219 4.410156 10.628906 4.179688 10.691406 C 3.949219 10.75 3.707031 10.683594 3.539062 10.511719 L 1.554688 8.527344 C 1.300781 8.273438 1.300781 7.855469 1.554688 7.597656 L 3.539062 5.613281 C 3.664062 5.484375 3.835938 5.414062 4.011719 5.414062 Z M 4.011719 5.414062 "/>
<path style=" stroke:none;fill-rule:nonzero;fill:rgb(87.843138%,87.843138%,87.843138%);fill-opacity:1;" d="M 7.9375 7.070312 C 8.484375 7.070312 8.929688 7.515625 8.929688 8.0625 C 8.929688 8.609375 8.484375 9.054688 7.9375 9.054688 C 7.390625 9.054688 6.945312 8.609375 6.945312 8.0625 C 6.945312 7.515625 7.390625 7.070312 7.9375 7.070312 Z M 7.9375 7.070312 "/>
</g>
</svg>
